X:846
T:Bumpus O' Stretton
O:england
M:6/8
C:
S:Bacon (Carey MSS)
N:rationalized A/B transitions, transposed from F to G
A:Ilmington
R:Jig
%P:A/2.(AB$^2$)$^4$.A
P:A.(AB2)4.A
%:
%:
K:G
I:speed 300
Q:C3=96
P:A
|: D | G>FE D2 B | c2 B A2 D | G>AB A>GE  | D3 G2 :|\
P:B
z | G>Bd d2 d | ege  d2 d | G>Bd d>^cd | B3 g3 |\
G>Bd d2 d | ege  d2 D | G>AB A>GE  | D3 G2 ||


